X:84
T:Berkeley Reel
R:reel
C:Larry Unger
B:Reckless Reel
Z:Transcribed by Mary Lou Knack 1-Oct-1998
Z:Included by permission from Larry Unger
M:C
L:1/8
Q:1/2=120
K:Bm
|:â€Bmâ€Bffe fgfe| â€œGâ€dBBA â€œAâ€ABcA| â€œBmâ€Bffe fgfe| â€œGâ€dBAF â€œF#mâ€A2FA|
â€œBmâ€Bffe fgfe| â€œGâ€dBBA â€œAâ€ABcA| â€œGâ€B2dB â€œDâ€AFED| â€œEmâ€EFED â€œGâ€B,2D2 ğŸ˜
|:â€Emâ€EDB,D E2DE| â€œF#mâ€FAAB AFED| â€œGâ€EDEF EDB,D| â€œGâ€EDB,D â€œAâ€A,4|
â€œEmâ€EDB,D E2DE| â€œF#mâ€FAAB AFED| â€œGâ€EDEF EDB,D| â€œAâ€FABA â€œBmâ€B4|
â€œEmâ€EDB,D E2DE| â€œF#mâ€FAAB AFED| â€œGâ€EDEF EDB,D| â€œGâ€EDB,D â€œAâ€A,4|
â€œEmâ€EDB,D E2DE| â€œF#mâ€FAAB AFED|â€Emâ€EFGE â€œF#mâ€FGAc| â€œGâ€Bcde â€œAâ€fedc |]

